Yaru++/apps/16/org.gnome.Sysprof.svg

<svg height="16" width="16" xmlns="http://www.w3.org/2000/svg">
  <path d="m8.0273438.50195312c-.6860001 0-1.3713744.23237876-1.9277344.69921878-1.11273.93369-1.3962019 2.5408781-.6699219 3.7988281l.8652344-.5c-.48695-.84343-.2987944-1.90523.4472656-2.53125.74605-.62602 1.8242525-.62602 2.5703125 0s.934216 1.68782.4472656 2.53125l.8652344.5c.72628-1.25795.442798-2.8651381-.6699219-3.7988281-.55636-.46684003-1.2417344-.69921878-1.9277343-.69921878zm-1.0273438 2.49804688v1h2v-1zm4.919922 1.6269531-.722656.6914063 1.380859 1.4453125.722656-.6894531zm-3.919922.3730469c-2.76142 0-5 2.23858-5 5s2.23858 5 5 5 5-2.23858 5-5-2.23858-5-5-5zm0 1 .2851562 3.0429688a1 1 0 0 1 .7148438.9570312 1 1 0 0 1 -.5429688.888672l.0527344.552734c.0442.35355-.2164556.624216-.5097656.603516-.25733-.0182-.550665-.294156-.484375-.603516l.0488281-.542968a1 1 0 0 1 -.5644531-.898438 1 1 0 0 1 .7304688-.9628906z" fill="#808080"/>
</svg>

<?xml version="1.0" encoding="UTF-8" standalone="no"?>
<svg
   xmlns:osb="http://www.openswatchbook.org/uri/2009/osb"
   xmlns:dc="http://purl.org/dc/elements/1.1/"
   xmlns:cc="http://creativecommons.org/ns#"
   xmlns:rdf="http://www.w3.org/1999/02/22-rdf-syntax-ns#"
   xmlns:svg="http://www.w3.org/2000/svg"
   xmlns="http://www.w3.org/2000/svg"
   xmlns:sodipodi="http://sodipodi.sourceforge.net/DTD/sodipodi-0.dtd"
   xmlns:inkscape="http://www.inkscape.org/namespaces/inkscape"
   width="16"
   height="16"
   version="1.1"
   id="svg16"
   sodipodi:docname="org.gnome.Sysprof-symbolic.svg"
   inkscape:version="0.92.4 (5da689c313, 2019-01-14)">
  <metadata
     id="metadata20">
    <rdf:RDF>
      <cc:Work
         rdf:about="">
        <dc:format>image/svg+xml</dc:format>
        <dc:type
           rdf:resource="http://purl.org/dc/dcmitype/StillImage" />
      </cc:Work>
    </rdf:RDF>
  </metadata>
  <sodipodi:namedview
     pagecolor="#ffffff"
     bordercolor="#666666"
     borderopacity="1"
     objecttolerance="10"
     gridtolerance="10"
     guidetolerance="10"
     inkscape:pageopacity="0"
     inkscape:pageshadow="2"
     inkscape:window-width="793"
     inkscape:window-height="480"
     id="namedview18"
     showgrid="false"
     inkscape:zoom="14.75"
     inkscape:cx="8"
     inkscape:cy="8"
     inkscape:window-x="0"
     inkscape:window-y="27"
     inkscape:window-maximized="0"
     inkscape:current-layer="layer9" />
  <title
     id="title9167">
  Gnome Symbolic Icon Theme
 </title>
  <defs
     id="defs5">
    <linearGradient
       id="linearGradient7212"
       osb:paint="solid">
      <stop
         id="stop7214"
         offset="0"
         style="stop-color:#000000" />
    </linearGradient>
  </defs>
  <g
     id="layer9"
     transform="translate(-523.0002,105)">
    <path
       style="fill:#808080;fill-opacity:1"
       d="M 8.0273438 0.50195312 C 7.3413437 0.50195312 6.6559694 0.73433188 6.0996094 1.2011719 C 4.9868794 2.1348619 4.7034075 3.74205 5.4296875 5 L 6.2949219 4.5 C 5.8079719 3.65657 5.9961275 2.59477 6.7421875 1.96875 C 7.4882375 1.34273 8.56644 1.34273 9.3125 1.96875 C 10.05856 2.59477 10.246716 3.65657 9.7597656 4.5 L 10.625 5 C 11.35128 3.74205 11.067798 2.1348619 9.9550781 1.2011719 C 9.3987181 0.73433187 8.7133437 0.50195312 8.0273438 0.50195312 z M 7 3 L 7 4 L 9 4 L 9 3 L 7 3 z M 11.919922 4.6269531 L 11.197266 5.3183594 L 12.578125 6.7636719 L 13.300781 6.0742188 L 11.919922 4.6269531 z M 8 5 C 5.23858 5 3 7.23858 3 10 C 3 12.76142 5.23858 15 8 15 C 10.76142 15 13 12.76142 13 10 C 13 7.23858 10.76142 5 8 5 z M 8 6 L 8.2851562 9.0429688 A 1 1 0 0 1 9 10 A 1 1 0 0 1 8.4570312 10.888672 L 8.5097656 11.441406 C 8.5539656 11.794956 8.29331 12.065622 8 12.044922 C 7.74267 12.026722 7.449335 11.750766 7.515625 11.441406 L 7.5644531 10.898438 A 1 1 0 0 1 7 10 A 1 1 0 0 1 7.7304688 9.0371094 L 8 6 z "
       transform="translate(523.0002,-105)"
       id="path7" />
  </g>
</svg>
